public/assets/imgs/contato/atendente-icon.svg

<svg fill="none" height="168" viewBox="0 0 168 168" width="168" xmlns="http://www.w3.org/2000/svg"><path clip-rule="evenodd" d="m108.341 15.7975c-8.114-6.69476-17.8903-8.86068-24.3115-8.79765l-.0295.00015c-18.6599 0-28.7109 7.3741-34.0045 16.1717-4.9784 8.274-5.9762 18.1978-5.264 25.4671 1.1259.0111 2.2201.0918 3.256.2219.2624-5.8491 1.852-13.1711 5.937-19.5425 5.1573-8.0437 14.1485-14.3182 28.5755-14.3182 14.4095 0 23.833 6.2502 29.6 14.1716 4.723 6.4857 6.936 13.993 7.646 19.9117 1.014-.083 2.084-.117 3.183-.086-.737-16.718-7.078-27.0029-14.588-33.1998zm20.624 34.0843c-.558-18.9109-7.68-31.182-16.806-38.7122-9.38-7.74022-20.595-10.240574-28.1735-10.169603-20.5313.003913-32.6428 8.295113-39.131 19.078303-5.8267 9.6836-6.903 21.0103-6.0861 29.2254-.9018.2249-1.7951.5134-2.6672.8749-2.7789 1.152-5.3633 3.0596-7.2288 6.0027-1.8573 2.9301-2.8724 6.6808-2.8724 11.3186 0 4.6745 1.0949 8.4536 3.0862 11.3945 1.9924 2.9426 4.7313 4.8231 7.6409 5.9523 4.4059 1.7099 9.3368 1.7591 13.3135 1.1902 1.2298 4.9779 4.237 9.3 7.4557 12.7004 3.3091 3.4957 7.0603 6.2517 10.0037 8.0117v5.251h-18.5c-15.0975 0-27.0496 9.073-35.1796 19.814-8.10752 10.713-12.86333 23.651-13.316499 32.533-.041893.821.255046 1.624.821409 2.22.56636.596 1.35251.933 2.17469.933h66c1.6569 0 3-1.343 3-3s-1.3431-3-3-3h-62.65693c1.1945-7.374 5.21853-17.42 11.76153-26.065 7.187-9.495 17.0008-16.781 28.7861-17.393l18.0872 28.082c.4986.775 1.3251 1.277 2.2418 1.363.9168.086 1.8223-.254 2.4562-.922l13.3584-14.074 13.8228 14.108c.6476.661 1.5639.987 2.4831.882.9198-.105 1.7388-.629 2.2208-1.418l17.097-28.021c18.875.961 40.64 18.132 42.247 43.458h-66.405c-1.6568 0-3 1.343-3 3s1.3432 3 3 3h69.5c.796 0 1.559-.316 2.121-.879.563-.562.879-1.325.879-2.121 0-31.275-26.964-52.5-50-52.5h-18.5v-5.142c2.931-1.55 6.404-3.831 9.616-6.643 3.845-3.3671 7.562-7.7095 9.34-12.7098.189-.533.357-1.075.501-1.6254 3.825.3525 8.559.0829 12.777-1.7054 2.77-1.1748 5.384-3.0364 7.291-5.859 1.912-2.8295 2.975-6.4197 2.975-10.8155 0-5.7816-1.771-10.1236-4.748-13.1637-2.249-2.2961-5.014-3.6744-7.787-4.4544zm-9.877 30.0314c3.079.2741 6.747.033 9.803-1.2628 1.917-.8127 3.523-2.0073 4.662-3.6941 1.135-1.6798 1.947-4.0522 1.947-7.4564 0-4.4873-1.335-7.2293-3.035-8.9656-1.757-1.7936-4.214-2.8284-6.953-3.2805-1.922-.317-3.872-.3273-5.597-.1622zm-5.09-27.4173c-.171-5.2859-1.973-13.234-6.748-19.7926-4.699-6.4535-12.3595-11.7033-24.75-11.7033-12.3729 0-19.4651 5.2254-23.5245 11.5567-3.7317 5.8202-5.0141 12.7799-5.0285 17.9744 3.5984 1.5029 8.691 3.0183 13.8217 3.3501 6.0145.3891 11.4626-.867 14.9792-4.8631l.0099-.0112c3.2399-3.6449 5.6014-5.7197 7.3721-6.704.8223-.4571 2.0154-.9668 3.3278-.7649.7431.1143 1.4948.4582 2.0847 1.0903.5673.6077.8212 1.3049.9168 1.8785.0186.1116.0309.2241.0367.337.0839 1.6093.9965 4.2208 3.7371 6.1555 2.447 1.7277 6.675 3.1346 13.736 2.3721zm-.23 6.9235c-7.654.6804-13.181-.8253-16.9957-3.5185-2.8525-2.0138-4.5806-4.5787-5.4836-7.0334-.9815.8606-2.3072 2.1692-4.0411 4.1196-5.2834 5.9995-12.9995 7.3258-19.8662 6.8816-4.7466-.307-9.3838-1.4692-13.1493-2.802l1.2623 25.2457c.3378 4.4051 2.899 8.6446 6.3593 12.3002 3.4392 3.6333 7.4671 6.3684 10.05 7.7364.0893.047.1763.099.2604.155 9.4065 6.271 18.6886 2.606 22.0359.096.1678-.126.3483-.234.5386-.322 2.714-1.258 6.4864-3.567 9.9244-6.577 2.174-1.9034 4.117-4.0024 5.583-6.201h-15.3586c-.7406 2.0795-2.0569 3.7363-3.7141 4.9279-2.2529 1.6199-5.0068 2.2984-7.5937 2.2592-2.5798-.039-5.2536-.7957-7.36-2.3701-2.1746-1.6253-3.7196-4.1291-3.7196-7.317 0-3.2115 1.5695-5.675 3.7851-7.2396 2.1228-1.4991 4.7836-2.1595 7.2945-2.1976 2.5187-.0381 5.189.544 7.3947 1.8779 1.5561.9411 2.9242 2.2948 3.75 4.0593h18.1217c.073-.3905.126-.7803.158-1.1691zm-24.3001 27.1448c-.1834-.7748-.6907-1.4404-1.5985-1.9893-1.0755-.6504-2.5927-1.0371-4.1989-1.0128-1.6142.0245-3.0159.4578-3.9243 1.0994-.8157.576-1.2462 1.3-1.2462 2.3385 0 1.0621.455 1.8708 1.3117 2.5111.9248.6912 2.3135 1.1533 3.8588 1.1767 1.5381.0233 2.9717-.3919 4-1.1313.8862-.6373 1.5701-1.5754 1.7974-2.9923zm-40.0931-6.4929-1.2565-25.1308c-3.0409-.5029-6.7086-.4674-9.7195.7808-1.8044.748-3.3451 1.9154-4.4587 3.6723-1.1219 1.7699-1.9401 4.3442-1.9401 8.1063 0 3.7256.8634 6.2715 2.0545 8.0306 1.1899 1.7574 2.8572 2.9518 4.8434 3.7227 3.2583 1.2645 7.1999 1.3109 10.4769.8181zm43.9114-32.6396c-.0004.0009-.0132.0063-.0376.0135.0257-.0107.0379-.0143.0376-.0135zm-.2862 62.6093v3.762l-9.5423 10.053-9.9577-10.087v-3.754c7.4834 3.146 14.5729 2.029 19.5.026zm-23.754 7.959h-14.7454l13.9532 21.664 10.8712-11.453zm18.4216 10.137 11.2786 11.511 13.2088-21.648h-14.8663zm-9.6676 36.363c0-1.657 1.3432-3 3-3h5c1.6569 0 3 1.343 3 3s-1.3431 3-3 3h-5c-1.6568 0-3-1.343-3-3z" fill="#000" fill-rule="evenodd"/></svg>

<svg width="168" height="168" viewBox="0 0 168 168" fill="none" xmlns="http://www.w3.org/2000/svg">
<path fill-rule="evenodd" clip-rule="evenodd" d="M108.341 15.7975C100.227 9.10274 90.4507 6.93682 84.0295 6.99985L84 7C65.3401 7 55.2891 14.3741 49.9955 23.1717C45.0171 31.4457 44.0193 41.3695 44.7315 48.6388C45.8574 48.6499 46.9516 48.7306 47.9875 48.8607C48.2499 43.0116 49.8395 35.6896 53.9245 29.3182C59.0818 21.2745 68.073 15 82.5 15C96.9095 15 106.333 21.2502 112.1 29.1716C116.823 35.6573 119.036 43.1646 119.746 49.0833C120.76 49.0003 121.83 48.9663 122.929 48.9973C122.192 32.2793 115.851 21.9944 108.341 15.7975ZM128.965 49.8818C128.407 30.9709 121.285 18.6998 112.159 11.1696C102.779 3.42938 91.564 0.929026 83.9855 0.999997C63.4542 1.00391 51.3427 9.29511 44.8545 20.0783C39.0278 29.7619 37.9515 41.0886 38.7684 49.3037C37.8666 49.5286 36.9733 49.8171 36.1012 50.1786C33.3223 51.3306 30.7379 53.2382 28.8724 56.1813C27.0151 59.1114 26 62.8621 26 67.4999C26 72.1744 27.0949 75.9535 29.0862 78.8944C31.0786 81.837 33.8175 83.7175 36.7271 84.8467C41.133 86.5566 46.0639 86.6058 50.0406 86.0369C51.2704 91.0148 54.2776 95.3369 57.4963 98.7373C60.8054 102.233 64.5566 104.989 67.5 106.749V112H49C33.9025 112 21.9504 121.073 13.8204 131.814C5.71288 142.527 0.95707 155.465 0.503901 164.347C0.462008 165.168 0.758947 165.971 1.32531 166.567C1.89167 167.163 2.67782 167.5 3.5 167.5H69.5C71.1569 167.5 72.5 166.157 72.5 164.5C72.5 162.843 71.1569 161.5 69.5 161.5H6.84307C8.03757 154.126 12.0616 144.08 18.6046 135.435C25.7916 125.94 35.6054 118.654 47.3907 118.042L65.4779 146.124C65.9765 146.899 66.803 147.401 67.7197 147.487C68.6365 147.573 69.542 147.233 70.1759 146.565L83.5343 132.491L97.3571 146.599C98.0047 147.26 98.921 147.586 99.8402 147.481C100.76 147.376 101.579 146.852 102.061 146.063L119.158 118.042C138.033 119.003 159.798 136.174 161.405 161.5H95C93.3432 161.5 92 162.843 92 164.5C92 166.157 93.3432 167.5 95 167.5H164.5C165.296 167.5 166.059 167.184 166.621 166.621C167.184 166.059 167.5 165.296 167.5 164.5C167.5 133.225 140.536 112 117.5 112H99V106.858C101.931 105.308 105.404 103.027 108.616 100.215C112.461 96.8479 116.178 92.5055 117.956 87.5052C118.145 86.9722 118.313 86.4302 118.457 85.8798C122.282 86.2323 127.016 85.9627 131.234 84.1744C134.004 82.9996 136.618 81.138 138.525 78.3154C140.437 75.4859 141.5 71.8957 141.5 67.4999C141.5 61.7183 139.729 57.3763 136.752 54.3362C134.503 52.0401 131.738 50.6618 128.965 49.8818ZM119.088 79.9132C122.167 80.1873 125.835 79.9462 128.891 78.6504C130.808 77.8377 132.414 76.6431 133.553 74.9563C134.688 73.2765 135.5 70.9041 135.5 67.4999C135.5 63.0126 134.165 60.2706 132.465 58.5343C130.708 56.7407 128.251 55.7059 125.512 55.2538C123.59 54.9368 121.64 54.9265 119.915 55.0916L119.088 79.9132ZM113.998 52.4959C113.827 47.21 112.025 39.2619 107.25 32.7033C102.551 26.2498 94.8905 21 82.5 21C70.1271 21 63.0349 26.2254 58.9755 32.5567C55.2438 38.3769 53.9614 45.3366 53.947 50.5311C57.5454 52.034 62.638 53.5494 67.7687 53.8812C73.7832 54.2703 79.2313 53.0142 82.7479 49.0181L82.7578 49.0069C85.9977 45.362 88.3592 43.2872 90.1299 42.3029C90.9522 41.8458 92.1453 41.3361 93.4577 41.538C94.2008 41.6523 94.9525 41.9962 95.5424 42.6283C96.1097 43.236 96.3636 43.9332 96.4592 44.5068C96.4778 44.6184 96.4901 44.7309 96.4959 44.8438C96.5798 46.4531 97.4924 49.0646 100.233 50.9993C102.68 52.727 106.908 54.1339 113.969 53.3714L113.998 52.4959ZM113.768 59.4194C106.114 60.0998 100.587 58.5941 96.7723 55.9009C93.9198 53.8871 92.1917 51.3222 91.2887 48.8675C90.3072 49.7281 88.9815 51.0367 87.2476 52.9871C81.9642 58.9866 74.2481 60.3129 67.3814 59.8687C62.6348 59.5617 57.9976 58.3995 54.2321 57.0667L55.4944 82.3124C55.8322 86.7175 58.3934 90.957 61.8537 94.6126C65.2929 98.2459 69.3208 100.981 71.9037 102.349C71.993 102.396 72.08 102.448 72.1641 102.504C81.5706 108.775 90.8527 105.11 94.2 102.6C94.3678 102.474 94.5483 102.366 94.7386 102.278C97.4526 101.02 101.225 98.711 104.663 95.701C106.837 93.7976 108.78 91.6986 110.246 89.5H94.8874C94.1468 91.5795 92.8305 93.2363 91.1733 94.4279C88.9204 96.0478 86.1665 96.7263 83.5796 96.6871C80.9998 96.6481 78.326 95.8914 76.2196 94.317C74.045 92.6917 72.5 90.1879 72.5 87C72.5 83.7885 74.0695 81.325 76.2851 79.7604C78.4079 78.2613 81.0687 77.6009 83.5796 77.5628C86.0983 77.5247 88.7686 78.1068 90.9743 79.4407C92.5304 80.3818 93.8985 81.7355 94.7243 83.5H112.846C112.919 83.1095 112.972 82.7197 113.004 82.3309L113.768 59.4194ZM89.4679 86.5642C89.2845 85.7894 88.7772 85.1238 87.8694 84.5749C86.7939 83.9245 85.2767 83.5378 83.6705 83.5621C82.0563 83.5866 80.6546 84.0199 79.7462 84.6615C78.9305 85.2375 78.5 85.9615 78.5 87C78.5 88.0621 78.955 88.8708 79.8117 89.5111C80.7365 90.2023 82.1252 90.6644 83.6705 90.6878C85.2086 90.7111 86.6422 90.2959 87.6705 89.5565C88.5567 88.9192 89.2406 87.9811 89.4679 86.5642ZM49.3748 80.0713L48.1183 54.9405C45.0774 54.4376 41.4097 54.4731 38.3988 55.7213C36.5944 56.4693 35.0537 57.6367 33.9401 59.3936C32.8182 61.1635 32 63.7378 32 67.4999C32 71.2255 32.8634 73.7714 34.0545 75.5305C35.2444 77.2879 36.9117 78.4823 38.8979 79.2532C42.1562 80.5177 46.0978 80.5641 49.3748 80.0713ZM93.2862 47.4317C93.2858 47.4326 93.273 47.438 93.2486 47.4452C93.2743 47.4345 93.2865 47.4309 93.2862 47.4317ZM93 110.041V113.803L83.4577 123.856L73.5 113.769V110.015C80.9834 113.161 88.0729 112.044 93 110.041ZM69.246 118H54.5006L68.4538 139.664L79.325 128.211L69.246 118ZM87.6676 128.137L98.9462 139.648L112.155 118H97.2887L87.6676 128.137ZM78 164.5C78 162.843 79.3432 161.5 81 161.5H86C87.6569 161.5 89 162.843 89 164.5C89 166.157 87.6569 167.5 86 167.5H81C79.3432 167.5 78 166.157 78 164.5Z" fill="black"/>
</svg>
